X: 10982
T: COTILLION No. 15. tune 2
C:
%R: jig
N: This is version 1, for ABC software that doesn't understand crescendo annotations.
B: Elias Howe "The Musician's Companion" Part 1 1842 p.98 #2
S: http://imslp.org/wiki/The_Musician's_Companion_(Howe,_Elias)
Z: 2015 John Chambers <jc:trillian.mit.edu>
M: 6/8
L: 1/8
K: Em
% - - - - - - - - - - - - - - - - - - - - - - - - -
!p!c |\
(B"_cresc."c^c) ("_>"e2d) | b(fg) ("_>"e2d) | .B("_>"ed) .A("_>"ed) | .d.A.B G2A |\
(B"_cresc."c^c) ("_>"e2d) | b(fg) ("_>"e2d) | .f.e.d .c.B.A | G2B G2 H|]
!f!B |\
(BA).A .A.d.f | a^gb afd | (d^c)c cef | gfa ge^c |\
(BA)A Adf | a^gb afd |(d^c).c cBc | (d3 "^D.C."d2) |]
!f!B |\
(e2^d) (e2f) | (g2f) (g2a) | (b2a) (g2e) | (^d2f) BBB |\
(e2^d) (e2f) | (g2f) (g2a) | bge B^df | (e3 "^D.C."e2) |]
% - - - - - - - - - - Dance description - - - - - - - - - -
%%begintext align
%% First 2 forward and back,
%% cross over,
%% chassa de chassa,
%% cross back,
%% grand chain,
%% promenade 8,
%% next 2 forward, &c.
%%endtext
%- - - - - - - - - - - - - - - - - - - - - - - - -
%%sep 1 1 300


